src/assets/images/wechat2.svg

<svg fill="none" height="54" viewBox="0 0 54 54" width="54" xmlns="http://www.w3.org/2000/svg"><path d="m44.0554 24.7245-3.3884-3.389v-4.791c0-.8531-.3389-1.6712-.942-2.2744s-1.4211-.9421-2.274-.9421h-4.7903l-3.3884-3.38892c-1.2519-1.25211-3.2909-1.25211-4.5503 0l-3.3884 3.38892h-4.7903c-.4223 0-.8405.0832-1.2307.2449-.3902.1616-.7447.3985-1.0433.6972-.2987.2987-.5355.6533-.6972 1.0435-.1616.3903-.2448.8085-.2448 1.2309v4.791l-3.38837 3.389c-1.25191 1.2521-1.25191 3.2914 0 4.551l3.38837 3.389v4.791c0 .4224.0832.8406.2448 1.2309.1617.3902.3985.7448.6972 1.0435.2986.2987.6531.5356 1.0433.6972.3902.1617.8084.2449 1.2307.2449h4.7903l3.3884 3.3889c1.2519 1.2521 3.2909 1.2521 4.5503 0l3.3884-3.3889h4.7903c.4223 0 .8405-.0832 1.2307-.2449.3902-.1616.7447-.3985 1.0433-.6972.2987-.2987.5355-.6533.6972-1.0435.1616-.3903.2448-.8085.2448-1.2309v-4.791l3.3884-3.389c.2994-.2984.537-.6531.6991-1.0436.1621-.3904.2455-.8091.2455-1.2319s-.0834-.8415-.2455-1.2319c-.1621-.3905-.3997-.7452-.6991-1.0436zm-8.7784-.9223-10.4426 8.8398c-.2923.2474-.6597.3824-1.042.3824-.045 0-.0899 0-.1424-.0075-.4273-.0375-.8246-.24-1.0945-.5699l-4.0181-4.8209c-.5697-.6823-.4798-1.6945.2024-2.2643.6822-.5699 1.6942-.4724 2.2639.2024l2.9836 3.5764 9.2132-7.7976c.6822-.5698 1.6942-.4873 2.2639.1875.5772.6822.4948 1.7019-.1874 2.2717z" fill="#000"/></svg>

<svg width="54" height="54" viewBox="0 0 54 54" fill="none" xmlns="http://www.w3.org/2000/svg">
<path d="M44.0554 24.7245L40.667 21.3355V16.5445C40.667 15.6914 40.3281 14.8733 39.725 14.2701C39.1219 13.6669 38.3039 13.328 37.451 13.328H32.6607L29.2723 9.93908C28.0204 8.68697 25.9814 8.68697 24.722 9.93908L21.3336 13.328H16.5433C16.121 13.328 15.7028 13.4112 15.3126 13.5729C14.9224 13.7345 14.5679 13.9714 14.2693 14.2701C13.9706 14.5688 13.7338 14.9234 13.5721 15.3136C13.4105 15.7039 13.3273 16.1221 13.3273 16.5445V21.3355L9.93893 24.7245C8.68702 25.9766 8.68702 28.0159 9.93893 29.2755L13.3273 32.6645V37.4555C13.3273 37.8779 13.4105 38.2961 13.5721 38.6864C13.7338 39.0766 13.9706 39.4312 14.2693 39.7299C14.5679 40.0286 14.9224 40.2655 15.3126 40.4271C15.7028 40.5888 16.121 40.672 16.5433 40.672H21.3336L24.722 44.0609C25.9739 45.313 28.0129 45.313 29.2723 44.0609L32.6607 40.672H37.451C37.8733 40.672 38.2915 40.5888 38.6817 40.4271C39.0719 40.2655 39.4264 40.0286 39.725 39.7299C40.0237 39.4312 40.2605 39.0766 40.4222 38.6864C40.5838 38.2961 40.667 37.8779 40.667 37.4555V32.6645L44.0554 29.2755C44.3548 28.9771 44.5924 28.6224 44.7545 28.2319C44.9166 27.8415 45 27.4228 45 27C45 26.5772 44.9166 26.1585 44.7545 25.7681C44.5924 25.3776 44.3548 25.0229 44.0554 24.7245ZM35.277 23.8022L24.8344 32.642C24.5421 32.8894 24.1747 33.0244 23.7924 33.0244C23.7474 33.0244 23.7025 33.0244 23.65 33.0169C23.2227 32.9794 22.8254 32.7769 22.5555 32.447L18.5374 27.6261C17.9677 26.9438 18.0576 25.9316 18.7398 25.3618C19.422 24.7919 20.434 24.8894 21.0037 25.5642L23.9873 29.1406L33.2005 21.343C33.8827 20.7732 34.8947 20.8557 35.4644 21.5305C36.0416 22.2127 35.9592 23.2324 35.277 23.8022Z" fill="black"/>
</svg>
